X: 31155
T: Paddy Fahey's
R: reel
M: 4/4
K: Dmajor
|:DEFD G2 AG|F3A defa|g3 e fdAG|(3EFG Ad dcAF|
DEFD GBAG|F3A defa|g3 A (3Bcd ed|cAGE ED D2:|
|:agfa gf (3efg|fdAF D3 =c|BG3 dGBg|fged (3B^cd eg|
fgaf gfeg|fdAF G2 FG|ADFA (3Bcd ed|cAGE ED D2:|

